X: 20801
T: FRENCH POULAR MELODY
Q: "Moderate."
%R: air, jig
B: W. Hamilton "Universal Tune-Book" Vol. 2 Glasgow 1846 p.80 #1
S: http://s3-eu-west-1.amazonaws.com/itma.dl.printmaterial/book_pdfs/hamiltonvol2web.pdf
Z: 2016 John Chambers <jc:trillian.mit.edu>
M: 2/4
L: 1/8
K: C
% - - - - - - - - - - - - - - - - - - - - - - - - -
[|\
e2ge | c3G  | cedf | e2dz |\
e2ge | c3G  | cdec | d2z2 |\
d2Ge | c2ce | d2dg | g2ez |\
d2Ge | c2ce | d2dg | g2ez |\
e2ge | c2z2 | d2Ge | c2z2 |]
% - - - - - - - - - - - - - - - - - - - - - - - - -

%%sep 1 1 500
%%sep 1 1 500

